assets/img/braze_icons/credit-card-upload.svg

<svg fill="none" height="24" viewBox="0 0 24 24" width="24" xmlns="http://www.w3.org/2000/svg"><g fill="#801ed7"><path d="m12.7071 14.2929c-.1875-.1875-.4419-.2929-.7071-.2929s-.5196.1054-.7071.2929l-3.00001 3c-.39052.3905-.39052 1.0237 0 1.4142.39053.3905 1.02369.3905 1.41422 0l1.29289-1.2929v4.5858c0 .5523.4477 1 1 1s1-.4477 1-1v-4.5858l1.2929 1.2929c.3905.3905 1.0237.3905 1.4142 0s.3905-1.0237 0-1.4142z"/><path d="m5.16146 2h13.67704c.5272-.00001.982-.00003 1.3565.03057.3954.03231.7886.10362 1.167.29642.5645.28762 1.0234.74656 1.311 1.31104.1928.37838.2641.7716.2964 1.16695.0306.37456.0306.82932.0306 1.35646 0 .46312-.3754.83856-.8386.83856h-20.32281c-.46314 0-.83859-.37545-.83859-.83859-.000015-.5271-.000028-.98189.03057-1.35643.0323-.39535.10362-.78857.29641-1.16695.28762-.56448.74657-1.02343 1.31105-1.31105.37838-.19279.7716-.26411 1.16695-.29641.37455-.0306.82938-.03059 1.35648-.03057z"/><path d="m2.6 9c-.56005 0-.84008 0-1.05399.10899-.18816.09588-.34114.24886-.43702.43702-.10899.21391-.10899.49389-.10899 1.05399v3.2385c-.000015.5271-.000028.982.03057 1.3565.0323.3954.10362.7886.29641 1.167.28762.5645.74657 1.0234 1.31105 1.311.37838.1928.7716.2641 1.16695.2964.37448.0306.82912.0306 1.35612.0306h.0389c.27159 0 .40739 0 .49904-.0378.0976-.0403.14053-.0731.20504-.1567.06057-.0785.10753-.2511.20145-.5962.13266-.4874.39037-.9478.77315-1.3306l3-3c.56262-.5626 1.32572-.8787 2.12132-.8787s1.5587.3161 2.1213.8787l3 3c.3828.3828.6405.8432.7732 1.3306.0939.3451.1408.5177.2014.5962.0645.0836.1075.1164.2051.1567.0916.0378.2274.0378.499.0378h.0386c.527 0 .9819 0 1.3564-.0306.3954-.0323.7886-.1036 1.167-.2964.5645-.2876 1.0234-.7465 1.311-1.311.1928-.3784.2641-.7716.2964-1.167.0306-.3745.0306-.8293.0306-1.3564v-3.2386c0-.56 0-.84008-.109-1.05399-.0959-.18816-.2488-.34114-.437-.43702-.2139-.10899-.4939-.10899-1.054-.10899z"/></g></svg>

<svg width="24" height="24" viewBox="0 0 24 24" fill="none" xmlns="http://www.w3.org/2000/svg">
<path d="M12.7071 14.2929C12.5196 14.1054 12.2652 14 12 14C11.7348 14 11.4804 14.1054 11.2929 14.2929L8.29289 17.2929C7.90237 17.6834 7.90237 18.3166 8.29289 18.7071C8.68342 19.0976 9.31658 19.0976 9.70711 18.7071L11 17.4142V22C11 22.5523 11.4477 23 12 23C12.5523 23 13 22.5523 13 22V17.4142L14.2929 18.7071C14.6834 19.0976 15.3166 19.0976 15.7071 18.7071C16.0976 18.3166 16.0976 17.6834 15.7071 17.2929L12.7071 14.2929Z" fill="#801ED7"/>
<path d="M5.16146 2L18.8385 2C19.3657 1.99999 19.8205 1.99997 20.195 2.03057C20.5904 2.06288 20.9836 2.13419 21.362 2.32699C21.9265 2.61461 22.3854 3.07355 22.673 3.63803C22.8658 4.01641 22.9371 4.40963 22.9694 4.80498C23 5.17954 23 5.6343 23 6.16144C23 6.62456 22.6246 7 22.1614 7H1.83859C1.37545 7 1 6.62455 1 6.16141C0.999985 5.63431 0.999972 5.17952 1.03057 4.80498C1.06287 4.40963 1.13419 4.01641 1.32698 3.63803C1.6146 3.07355 2.07355 2.6146 2.63803 2.32698C3.01641 2.13419 3.40963 2.06287 3.80498 2.03057C4.17953 1.99997 4.63436 1.99998 5.16146 2Z" fill="#801ED7"/>
<path d="M2.6 9C2.03995 9 1.75992 9 1.54601 9.10899C1.35785 9.20487 1.20487 9.35785 1.10899 9.54601C1 9.75992 1 10.0399 1 10.6V13.8385C0.999985 14.3656 0.999972 14.8205 1.03057 15.195C1.06287 15.5904 1.13419 15.9836 1.32698 16.362C1.6146 16.9265 2.07355 17.3854 2.63803 17.673C3.01641 17.8658 3.40963 17.9371 3.80498 17.9694C4.17946 18 4.6341 18 5.1611 18H5.2C5.47159 18 5.60739 18 5.69904 17.9622C5.79664 17.9219 5.83957 17.8891 5.90408 17.8055C5.96465 17.727 6.01161 17.5544 6.10553 17.2093C6.23819 16.7219 6.4959 16.2615 6.87868 15.8787L9.87868 12.8787C10.4413 12.3161 11.2044 12 12 12C12.7956 12 13.5587 12.3161 14.1213 12.8787L17.1213 15.8787C17.5041 16.2615 17.7618 16.7219 17.8945 17.2093C17.9884 17.5544 18.0353 17.727 18.0959 17.8055C18.1604 17.8891 18.2034 17.9219 18.301 17.9622C18.3926 18 18.5284 18 18.8 18H18.8386C19.3656 18 19.8205 18 20.195 17.9694C20.5904 17.9371 20.9836 17.8658 21.362 17.673C21.9265 17.3854 22.3854 16.9265 22.673 16.362C22.8658 15.9836 22.9371 15.5904 22.9694 15.195C23 14.8205 23 14.3657 23 13.8386V10.6C23 10.04 23 9.75992 22.891 9.54601C22.7951 9.35785 22.6422 9.20487 22.454 9.10899C22.2401 9 21.9601 9 21.4 9H2.6Z" fill="#801ED7"/>
</svg>
